app/content/themes/irontheme/images/general/check.svg

<svg width="26" height="26" viewBox="0 0 26 26" fill="none" xmlns="http://www.w3.org/2000/svg">
<path d="M12.0854 17.6709C11.7915 17.6709 11.5301 17.5402 11.3668 17.3443L6.43465 11.9875C6.07535 11.5955 6.10805 10.9749 6.49998 10.6156C6.89192 10.2563 7.51255 10.289 7.87185 10.6809L12.1181 15.2864L23.8769 3.56031C24.2688 3.16837 24.8895 3.16837 25.2488 3.56031C25.6081 3.95225 25.6407 4.57288 25.2488 4.93218L12.7714 17.3769C12.608 17.5729 12.3468 17.6709 12.0854 17.6709Z" fill="#17C128"/>
<path d="M13 26C5.84672 26 0 20.1533 0 13C0 5.84678 5.84672 0 13 0C13.5553 0 13.9799 0.424634 13.9799 0.979871C13.9799 1.53511 13.5553 1.95974 13 1.95974C6.92462 1.95974 1.9598 6.92456 1.9598 13C1.9598 19.0754 6.92462 24.0402 13 24.0402C19.0754 24.0402 24.0403 19.0754 24.0403 13C24.0403 12.4447 24.4649 12.0201 25.0201 12.0201C25.5754 12.0201 26 12.4447 26 13C26 20.1533 20.1533 26 13 26Z" fill="#17C128"/>
</svg>

<svg width="26" height="26" viewBox="0 0 26 26" fill="none" xmlns="http://www.w3.org/2000/svg"><path d="M12.085 17.67a.936.936 0 01-.718-.326l-4.932-5.357a.977.977 0 01.065-1.371.977.977 0 011.372.065l4.246 4.605L23.877 3.56c.392-.392 1.013-.392 1.372 0 .36.392.392 1.013 0 1.372L12.77 17.377c-.163.196-.424.294-.686.294z" fill="#17C128"/><path d="M13 26C5.847 26 0 20.153 0 13S5.847 0 13 0c.555 0 .98.425.98.98 0 .555-.425.98-.98.98C6.925 1.96 1.96 6.925 1.96 13c0 6.075 4.965 11.04 11.04 11.04 6.075 0 11.04-4.965 11.04-11.04 0-.555.425-.98.98-.98.555 0 .98.425.98.98 0 7.153-5.847 13-13 13z" fill="#17C128"/></svg>
